static/images/icons/github.svg

<svg fill="none" height="42" viewBox="0 0 42 42" width="42" xmlns="http://www.w3.org/2000/svg" xmlns:xlink="http://www.w3.org/1999/xlink"><linearGradient id="a" gradientUnits="userSpaceOnUse" x1="8.5" x2="34.5" y1="7" y2="36"><stop offset="0" stop-color="#fec976"/><stop offset=".5" stop-color="#ffea8d"/><stop offset="1" stop-color="#cade39"/></linearGradient><clipPath id="b"><path d="m0 0h42v42h-42z"/></clipPath><g clip-path="url(#b)"><path d="m21 42c11.598 0 21-9.402 21-21 0-11.59798-9.402-21-21-21-11.59798 0-21 9.40202-21 21 0 11.598 9.40202 21 21 21z" fill="url(#a)"/><path d="m21 7c-7.735 0-14 6.265-14 14 0 6.195 4.0075 11.4275 9.5725 13.2825.7.1225.9625-.2975.9625-.665 0-.3325-.0175-1.435-.0175-2.6075-3.5175.6475-4.4275-.8575-4.7075-1.645-.1575-.4025-.84-1.645-1.435-1.9775-.49-.2625-1.19-.91-.0175-.9275 1.1025-.0175 1.89 1.015 2.1525 1.435 1.26 2.1175 3.2725 1.5225 4.0775 1.155.1225-.91.49-1.5225.8925-1.8725-3.115-.35-6.37-1.5575-6.37-6.9125 0-1.5225.5425-2.7825 1.435-3.7625-.14-.35-.63-1.785.14-3.71 0 0 1.1725-.3675 3.85 1.435 1.12-.315 2.31-.4725 3.5-.4725s2.38.1575 3.5.4725c2.6775-1.82 3.85-1.435 3.85-1.435.77 1.925.28 3.36.14 3.71.8925.98 1.435 2.2225 1.435 3.7625 0 5.3725-3.2725 6.5625-6.3875 6.9125.5075.4375.945 1.2775.945 2.59 0 1.8725-.0175 3.3775-.0175 3.85 0 .3675.2625.805.9625.665 2.7797-.9376 5.1952-2.7236 6.9062-5.1065 1.711-2.3828 2.6313-5.2425 2.6313-8.176 0-7.735-6.265-14-14-14z" fill="#0e1025"/></g></svg>

<svg width="42" height="42" viewBox="0 0 42 42" fill="none" xmlns="http://www.w3.org/2000/svg">
<g clip-path="url(#clip0_586_4531)">
<path d="M21 42C32.598 42 42 32.598 42 21C42 9.40202 32.598 0 21 0C9.40202 0 0 9.40202 0 21C0 32.598 9.40202 42 21 42Z" fill="url(#paint0_linear_586_4531)"/>
<path d="M21 7C13.265 7 7 13.265 7 21C7 27.195 11.0075 32.4275 16.5725 34.2825C17.2725 34.405 17.535 33.985 17.535 33.6175C17.535 33.285 17.5175 32.1825 17.5175 31.01C14 31.6575 13.09 30.1525 12.81 29.365C12.6525 28.9625 11.97 27.72 11.375 27.3875C10.885 27.125 10.185 26.4775 11.3575 26.46C12.46 26.4425 13.2475 27.475 13.51 27.895C14.77 30.0125 16.7825 29.4175 17.5875 29.05C17.71 28.14 18.0775 27.5275 18.48 27.1775C15.365 26.8275 12.11 25.62 12.11 20.265C12.11 18.7425 12.6525 17.4825 13.545 16.5025C13.405 16.1525 12.915 14.7175 13.685 12.7925C13.685 12.7925 14.8575 12.425 17.535 14.2275C18.655 13.9125 19.845 13.755 21.035 13.755C22.225 13.755 23.415 13.9125 24.535 14.2275C27.2125 12.4075 28.385 12.7925 28.385 12.7925C29.155 14.7175 28.665 16.1525 28.525 16.5025C29.4175 17.4825 29.96 18.725 29.96 20.265C29.96 25.6375 26.6875 26.8275 23.5725 27.1775C24.08 27.615 24.5175 28.455 24.5175 29.7675C24.5175 31.64 24.5 33.145 24.5 33.6175C24.5 33.985 24.7625 34.4225 25.4625 34.2825C28.2422 33.3449 30.6577 31.5589 32.3687 29.176C34.0797 26.7932 35 23.9335 35 21C35 13.265 28.735 7 21 7Z" fill="#0E1025"/>
</g>
<defs>
<linearGradient id="paint0_linear_586_4531" x1="8.5" y1="7" x2="34.5" y2="36" gradientUnits="userSpaceOnUse">
<stop stop-color="#FEC976"/>
<stop offset="0.5" stop-color="#FFEA8D"/>
<stop offset="1" stop-color="#CADE39"/>
</linearGradient>
<clipPath id="clip0_586_4531">
<rect width="42" height="42" fill="white"/>
</clipPath>
</defs>
</svg>
